symbols/web/markunread_mailbox/materialsymbolsrounded/markunread_mailbox_wght700fill1_20px.svg

<svg xmlns="http://www.w3.org/2000/svg" height="20" width="20"><path d="M3.667 19.042q-1.146 0-1.927-.782-.782-.781-.782-1.927V8.667q0-1.146.782-1.927.781-.782 1.927-.782H5V1.75q0-.542.406-.948.406-.406.948-.406h4.354q.542 0 .948.406.406.406.406.948V3q0 .542-.406.948-.406.406-.948.406H6.75v6.396q0 .354.26.615.261.26.615.26t.615-.26q.26-.261.26-.615V5.958h7.833q1.146 0 1.927.782.782.781.782 1.927v7.666q0 1.146-.782 1.927-.781.782-1.927.782Z"/></svg>

<svg xmlns="http://www.w3.org/2000/svg" height="20" width="20"><path d="M3.667 19.042Q2.521 19.042 1.74 18.26Q0.958 17.479 0.958 16.333V8.667Q0.958 7.521 1.74 6.74Q2.521 5.958 3.667 5.958H5V1.75Q5 1.208 5.406 0.802Q5.812 0.396 6.354 0.396H10.708Q11.25 0.396 11.656 0.802Q12.062 1.208 12.062 1.75V3Q12.062 3.542 11.656 3.948Q11.25 4.354 10.708 4.354H6.75V10.75Q6.75 11.104 7.01 11.365Q7.271 11.625 7.625 11.625Q7.979 11.625 8.24 11.365Q8.5 11.104 8.5 10.75V5.958H16.333Q17.479 5.958 18.26 6.74Q19.042 7.521 19.042 8.667V16.333Q19.042 17.479 18.26 18.26Q17.479 19.042 16.333 19.042Z"/></svg>
